X: 1
T: Maid's Complaint, The
M: 9/8
L: 1/8
R: slip jig
K: Dmaj
|: B | A2 F F2 d cBA | B2 c d2 e fdB | A2 F F2 d cBA |[1 BB/c/d edc d2 :|[2 Bcd AG/F/E D2 ||
|: e | f2 d d2 f fed | e2 c c2 e edc | d2 B B2 d cBA |[1 BB/c/d edc d2 :|[2 Bcd AG/F/E D2 |]
